app/src/main/assets/symbols/transport/rental_bicycle.svg

<?xml version="1.0" encoding="UTF-8" standalone="no"?>
<svg
   xmlns:dc="http://purl.org/dc/elements/1.1/"
   xmlns:cc="http://creativecommons.org/ns#"
   xmlns:rdf="http://www.w3.org/1999/02/22-rdf-syntax-ns#"
   xmlns:svg="http://www.w3.org/2000/svg"
   xmlns="http://www.w3.org/2000/svg"
   version="1.1"
   width="16"
   height="16"
   viewBox="0 0 16 16"
   id="svg2">
  <metadata id="metadata8">
    <rdf:RDF>
      <cc:Work rdf:about="">
        <dc:format>image/svg+xml</dc:format>
        <dc:type rdf:resource="http://purl.org/dc/dcmitype/StillImage"/>
        <dc:title/>
      </cc:Work>
    </rdf:RDF>
  </metadata>
  <defs id="defs6"/>
  <rect width="16" height="16" x="0" y="0" id="canvas" style="fill:none;stroke:none;visibility:hidden"/>
  <path d="M 3.5,0 C 2.119288,0 1,1.1192881 1,2.5 1,3.8807119 2.119288,5 3.5,5 4.425342,5 5.223985,4.4972377 5.65625,3.75 L 7,3.75 l 1,-1 1,1 1,-1 1,1 0.5,0 L 13,2.5 11.5,1.25 5.65625,1.25 C 5.223985,0.5027623 4.425342,0 3.5,0 z m -1,2 C 2.776142,2 3,2.2238576 3,2.5 3,2.7761424 2.776142,3 2.5,3 2.223858,3 2,2.7761424 2,2.5 2,2.2238576 2.223858,2 2.5,2 z m 5.5,3.4375 0.03125,1 L 9,7 9,8 5.25,8 5,8 5,7 5.5,7 c 1,0 1,-1 0,-1 l -2,0 c -1,0 -1,1 0,1 L 4,7 4,8 3.4375,9.375 c -0.04165,-0.0023 -0.08284,0 -0.125,0 C 2.042004,9.375 1,10.417004 1,11.6875 1,12.957996 2.042004,14 3.3125,14 4.582996,14 5.625,12.957996 5.625,11.6875 5.625,11.447485 5.56957,11.218899 5.5,11 L 6,11 7,11 9.156,9 9.15625,9 9.4375,9.71875 C 8.797861,10.135655 8.375,10.877559 8.375,11.6875 8.375,12.957996 9.417004,14 10.6875,14 c 1.270496,0 2.34375,-1.042004 2.34375,-2.3125 0,-1.270496 -1.073254,-2.3125 -2.34375,-2.3125 -0.04216,0 -0.08335,-0.0023 -0.125,0 L 10,8 10,6.625 z M 4.84375,9 7.956,9 6.65,10.25 l -1.55625,0 C 4.939889,10.062277 4.766292,9.851578 4.5625,9.71875 z M 3.3125,10.5 C 3.975001,10.5 4.5,11.024999 4.5,11.6875 4.5,12.350001 3.975001,12.875 3.3125,12.875 2.649999,12.875 2.125,12.350001 2.125,11.6875 2.125,11.024999 2.649999,10.5 3.3125,10.5 z m 7.375,0 c 0.662501,0 1.1875,0.524999 1.1875,1.1875 0,0.662501 -0.524999,1.1875 -1.1875,1.1875 -0.662501,0 -1.15625,-0.524999 -1.15625,-1.1875 0,-0.662501 0.493749,-1.1875 1.15625,-1.1875 z" id="rental-bicycle" style="fill:#0092da;stroke:none" transform="translate(1,1)"/>
</svg>

<?xml version="1.0" encoding="UTF-8"?>
<svg version="1.1" viewBox="0 0 16 16" xmlns="http://www.w3.org/2000/svg" xmlns:cc="http://creativecommons.org/ns#" xmlns:dc="http://purl.org/dc/elements/1.1/" xmlns:rdf="http://www.w3.org/1999/02/22-rdf-syntax-ns#">
<metadata>
<rdf:RDF>
<cc:Work rdf:about="">
<dc:format>image/svg+xml</dc:format>
<dc:type rdf:resource="http://purl.org/dc/dcmitype/StillImage"/>
<dc:title/>
</cc:Work>
</rdf:RDF>
</metadata>
<rect width="16" height="16" fill="none" visibility="hidden"/>
<path transform="translate(1,1)" d="m3.5 0c-1.3807 0-2.5 1.1193-2.5 2.5s1.1193 2.5 2.5 2.5c0.92534 0 1.724-0.50276 2.1562-1.25h1.3438l1-1 1 1 1-1 1 1h0.5l1.5-1.25-1.5-1.25h-5.8438c-0.43226-0.74724-1.2309-1.25-2.1562-1.25zm-1 2c0.27614 0 0.5 0.22386 0.5 0.5s-0.22386 0.5-0.5 0.5-0.5-0.22386-0.5-0.5 0.22386-0.5 0.5-0.5zm5.5 3.4375 0.03125 1 0.96875 0.5625v1h-3.75-0.25v-1h0.5c1 0 1-1 0-1h-2c-1 0-1 1 0 1h0.5v1l-0.5625 1.375c-0.04165-0.0023-0.08284 0-0.125 0-1.2705 0-2.3125 1.042-2.3125 2.3125s1.042 2.3125 2.3125 2.3125 2.3125-1.042 2.3125-2.3125c0-0.24002-0.05543-0.4686-0.125-0.6875h0.5 1l2.156-2h2.5e-4l0.28125 0.71875c-0.63964 0.4169-1.0625 1.1588-1.0625 1.9688 0 1.2705 1.042 2.3125 2.3125 2.3125s2.3438-1.042 2.3438-2.3125-1.0733-2.3125-2.3438-2.3125c-0.04216 0-0.08335-0.0023-0.125 0l-0.5625-1.375v-1.375zm-3.1562 3.5625h3.1122l-1.306 1.25h-1.5562c-0.15386-0.18772-0.32746-0.39842-0.53125-0.53125zm-1.5312 1.5c0.6625 0 1.1875 0.525 1.1875 1.1875s-0.525 1.1875-1.1875 1.1875-1.1875-0.525-1.1875-1.1875 0.525-1.1875 1.1875-1.1875zm7.375 0c0.6625 0 1.1875 0.525 1.1875 1.1875s-0.525 1.1875-1.1875 1.1875-1.1562-0.525-1.1562-1.1875 0.49375-1.1875 1.1562-1.1875z" fill="#0092da"/>
</svg>
